public/images/email.svg

<svg xmlns:xlink="http://www.w3.org/1999/xlink" xmlns="http://www.w3.org/2000/svg" width="20" height="20" viewBox="0 0 20 20" fill="none">
<g clip-path="url(#clip0)">
<path d="M13.2578 10.1025L20.0003 14.365V5.66L13.2578 10.1025Z" fill="#6A7B56"/>
<path d="M0 5.66V14.365L6.7425 10.1025L0 5.66Z" fill="#6A7B56"/>
<path d="M18.7496 3.125H1.24961C0.625859 3.125 0.130859 3.59 0.0371094 4.18875L9.99961 10.7525L19.9621 4.18875C19.8684 3.59 19.3734 3.125 18.7496 3.125Z" fill="#6A7B56"/>
<path d="M12.1116 10.8576L10.3428 12.0226C10.2378 12.0913 10.1191 12.1251 9.99906 12.1251C9.87906 12.1251 9.76031 12.0913 9.65531 12.0226L7.88656 10.8563L0.0390625 15.8201C0.135313 16.4138 0.627813 16.8751 1.24906 16.8751H18.7491C19.3703 16.8751 19.8628 16.4138 19.9591 15.8201L12.1116 10.8576Z" fill="#6A7B56"/>
</g>
<defs>
<clipPath id="clip0">
<rect width="20" height="20" fill="white"/>
</clipPath>
</defs>
</svg>

<svg xmlns="http://www.w3.org/2000/svg" width="20" height="20" fill="none"><g fill="#6A7B56" clip-path="url(#a)"><path d="M13.258 10.103 20 14.365V5.66zM0 5.66v8.705l6.743-4.263zM18.75 3.125H1.25c-.624 0-1.12.465-1.213 1.064L10 10.752l9.962-6.563c-.094-.599-.589-1.064-1.212-1.064M12.112 10.858l-1.77 1.165a.63.63 0 0 1-.687 0l-1.768-1.167L.039 15.82c.096.594.589 1.055 1.21 1.055h17.5c.621 0 1.114-.461 1.21-1.055z"/></g><defs><clipPath id="a"><path fill="#fff" d="M0 0h20v20H0z"/></clipPath></defs></svg>
